X:50
T:Earl the Breakfast Boiler
R:jig
D:Moving Hearts: The Storm
M:6/8
K:Amix
ABc cBA|BEE EFG|Bee dEE|AGF FED|
ABc cBA|BEE EFA|Bee dEE|AGF FED:|
|:ABc cBA|Bee edB|ffe dee|dBf fed|
ABc cBA|Bee edB|ffe dfg|fea afd:|
|:aea e2a|eag fed|gee efg|aff fed|
aea e2a|eag fga|beg e2f|dfa afd:|
